src/assets/img/icons/duotone-icons/Files/Downloaded file.svg

<?xml version="1.0" encoding="UTF-8"?>
<svg width="24px" height="24px" viewBox="0 0 24 24" version="1.1" xmlns="http://www.w3.org/2000/svg" xmlns:xlink="http://www.w3.org/1999/xlink">
    <!-- Generator: Sketch 52.2 (67145) - http://www.bohemiancoding.com/sketch -->
    <title>Stockholm-icons / Files / Downloaded file</title>
    <desc>Created with Sketch.</desc>
    <g id="Stockholm-icons-/-Files-/-Downloaded-file" stroke="none" stroke-width="1" fill="none" fill-rule="evenodd">
        <polygon id="Shape" points="0 0 24 0 24 24 0 24"></polygon>
        <path d="M5.85714286,2 L13.7364114,2 C14.0910962,2 14.4343066,2.12568431 14.7051108,2.35473959 L19.4686994,6.3839416 C19.8056532,6.66894833 20,7.08787823 20,7.52920201 L20,20.0833333 C20,21.8738751 19.9795521,22 18.1428571,22 L5.85714286,22 C4.02044787,22 4,21.8738751 4,20.0833333 L4,3.91666667 C4,2.12612489 4.02044787,2 5.85714286,2 Z" id="Combined-Shape" fill="#335EEA" opacity="0.3"></path>
        <path d="M10.9270649,9.85490253 L10.9270649,11.811376 L8.91939356,11.811376 C8.64325119,11.811376 8.41939356,12.0352336 8.41939356,12.311376 L8.41939356,13.3346747 C8.41939356,13.6108171 8.64325119,13.8346747 8.91939356,13.8346747 L10.9270649,13.8346747 L10.9270649,15.7911482 C10.9270649,16.0672906 11.1509225,16.2911482 11.4270649,16.2911482 C11.5453765,16.2911482 11.6598551,16.2491944 11.7501498,16.172745 L15.2558109,13.2046222 C15.466561,13.0261873 15.4927577,12.7106906 15.3143228,12.4999405 C15.296469,12.4788533 15.2768981,12.4592823 15.2558109,12.4414286 L11.7501498,9.4733057 C11.5393997,9.29487083 11.2239029,9.3210675 11.045468,9.53181761 C10.9690186,9.62211229 10.9270649,9.7365909 10.9270649,9.85490253 Z" id="Shape" fill="#335EEA"></path>
    </g>
</svg>

<svg width="24" height="24" viewBox="0 0 24 24" xmlns="http://www.w3.org/2000/svg"><g fill="none" fill-rule="evenodd"><path d="M0 0h24v24H0z"/><path d="M5.857 2h7.88a1.5 1.5 0 01.968.355l4.764 4.029A1.5 1.5 0 0120 7.529v12.554c0 1.79-.02 1.917-1.857 1.917H5.857C4.02 22 4 21.874 4 20.083V3.917C4 2.127 4.02 2 5.857 2z" fill="#335EEA" opacity=".3"/><path d="M10.927 9.855v1.956H8.92a.5.5 0 00-.5.5v1.024a.5.5 0 00.5.5h2.008v1.956a.5.5 0 00.823.382l3.506-2.968a.5.5 0 000-.764L11.75 9.473a.5.5 0 00-.823.382z" fill="#335EEA"/></g></svg>
